X: 38824
T: Sully's No. 37
R: hornpipe
M: 4/4
K: Adorian
|:AG|EcBc ~A2cd|edea gede|cBcd (3efg ed|cBcd ecdc|
AcGE GAAG|(3ABc AG DEED|cDEG cBAB|{c}BAdc A2:|
|:ce|aege a2zb|c'bag edcB|cedc AGEG|AcGE GAAG|
Acde g2eg|abag edcB|cedc AGEG|(3cBA dc A2:|

